X: 3
T: Statia Donnelly
R: jig
M: 6/8
L: 1/8
K: Dmix
|:AG| FGA cAA|BGB cAG|FGA cAG|Ad^c d2A||D(3GAB cAA|efd e(3gfe|dcA GEA|D3 D2:|||:d2A cAA|efd e(3gfe|ded cAB|c2B ABc||ded cAd|efd e(3gfe|dcA GEA|D3 D2:||


Tune 1471	Setting 14864

